lightbulb-alert.svg

<svg fill="currentColor" viewBox="0 0 24 24"><path d="M10 2C6.1 2 3 5.1 3 9c0 2.4 1.2 4.5 3 5.7V17c0 .6.4 1 1 1h6c.6 0 1-.4 1-1v-2.3c1.8-1.3 3-3.4 3-5.7 0-3.9-3.1-7-7-7M7 21c0 .6.4 1 1 1h4c.6 0 1-.4 1-1v-1H7zm12-9V7h2v6h-2m0 4v-2h2v2z"/></svg>

<svg  viewBox="0 0 24 24" fill="currentColor"><path  d="M10 2C6.1 2 3 5.1 3 9C3 11.4 4.2 13.5 6 14.7V17C6 17.6 6.4 18 7 18H13C13.6 18 14 17.6 14 17V14.7C15.8 13.4 17 11.3 17 9C17 5.1 13.9 2 10 2M7 21C7 21.6 7.4 22 8 22H12C12.6 22 13 21.6 13 21V20H7V21M19 12V7H21V13H19M19 17V15H21V17H19Z"/></svg>
